X: 30343
T: Old Peat Road, The
R: jig
M: 6/8
K: Aminor
|:EAA ABc|BAG A2 A|DGG GFG|Bge dBG|
EAA ABc|BAG A2 f|edc dcB|A6:|
K:Ador
aga ecA|gfg dBG|aga ecA|def gfg|
aga ecA|gfg dBG|edc dcB|A3 A2 e||
aga ecA|gfg dBG|aga ecA|def gfg|
K:Am
EAA ABc|BAG A2 f|edc dcB|A6||

